webapp/src/assets/icons/cloudproviders/aws/management_governance/cloudformation_stack.svg

<svg width="48" height="48" xmlns="http://www.w3.org/2000/svg"><path d="M2 15.353h43.92V2H2v13.353Zm2-1.999h39.92V4H4v9.354Zm20.706 16.847H45.92V16.847H24.706v13.354Zm2-2.001H43.92v-9.353H26.706V28.2ZM2 30.201h21.213V16.847H2v13.354ZM4 28.2h17.213v-9.353H4V28.2Zm28.567 16.847H45.92V31.694H32.567v13.353Zm1.999-2h9.354v-9.354h-9.354v9.354Zm-17.719 2h14.226V31.694H16.847v13.353Zm2-2h10.227v-9.354H18.847v9.354ZM2 45.047h13.352V31.694H2v13.353Zm2-2h9.353v-9.354H4v9.354Z" fill="#E7157B" fill-rule="evenodd"/></svg>

<?xml version="1.0" encoding="UTF-8"?>
<svg width="48px" height="48px" viewBox="0 0 48 48" version="1.1" xmlns="http://www.w3.org/2000/svg" xmlns:xlink="http://www.w3.org/1999/xlink">
    <title>Icon-Resource/Management-Governance/Res_AWS-CloudFormation_Stack_48</title>
    <g id="Icon-Resource/Management-Governance/Res_AWS-CloudFormation_Stack_48" stroke="none" stroke-width="1" fill="none" fill-rule="evenodd">
        <path d="M2,15.353 L45.92,15.353 L45.92,2 L2,2 L2,15.353 Z M4,13.354 L43.92,13.354 L43.92,4 L4,4 L4,13.354 Z M24.706,30.201 L45.92,30.201 L45.92,16.847 L24.706,16.847 L24.706,30.201 Z M26.706,28.2 L43.92,28.2 L43.92,18.847 L26.706,18.847 L26.706,28.2 Z M2,30.201 L23.213,30.201 L23.213,16.847 L2,16.847 L2,30.201 Z M4,28.2 L21.213,28.2 L21.213,18.847 L4,18.847 L4,28.2 Z M32.567,45.047 L45.92,45.047 L45.92,31.694 L32.567,31.694 L32.567,45.047 Z M34.566,43.047 L43.92,43.047 L43.92,33.693 L34.566,33.693 L34.566,43.047 Z M16.847,45.047 L31.073,45.047 L31.073,31.694 L16.847,31.694 L16.847,45.047 Z M18.847,43.047 L29.074,43.047 L29.074,33.693 L18.847,33.693 L18.847,43.047 Z M2,45.047 L15.352,45.047 L15.352,31.694 L2,31.694 L2,45.047 Z M4,43.047 L13.353,43.047 L13.353,33.693 L4,33.693 L4,43.047 Z" id="AWS-CloudFormation_stack_Resource-Icon_light-bg" fill="#E7157B"></path>
    </g>
</svg>
